symbols/web/party_mode/materialsymbolsrounded/party_mode_wght300gradN25fill1_48px.svg

<svg xmlns="http://www.w3.org/2000/svg" height="48" width="48"><path d="M24 33.9q3.3 0 5.525-2.3 2.225-2.3 2.225-5.6 0-.25-.025-.425t-.075-.425h-2.2q0 .25.075.425T29.6 26q0 2.25-1.675 3.975T24 31.7h-5.3q.75.95 2.2 1.575 1.45.625 3.1.625Zm-7.75-6.75h2q0-.25.075-.575.075-.325.075-.575 0-2.25 1.65-3.85t3.95-1.6h5.35q-.95-.95-2.325-1.575Q25.65 18.35 24 18.35q-3.35 0-5.55 2.175-2.2 2.175-2.2 5.425v1.2Zm-8.3 13.7q-1.15 0-1.975-.825-.825-.825-.825-1.975V14.2q0-1.15.825-1.975Q6.8 11.4 7.95 11.4h6.9l2.8-3.35q.35-.45.925-.675.575-.225 1.175-.225h8.5q.6 0 1.175.225.575.225.975.675l2.75 3.35h6.9q1.1 0 1.95.825.85.825.85 1.975v23.85q0 1.15-.85 1.975-.85.825-1.95.825Z"/></svg>

<svg xmlns="http://www.w3.org/2000/svg" height="48" width="48"><path d="M24 33.9Q27.3 33.9 29.525 31.6Q31.75 29.3 31.75 26Q31.75 25.75 31.725 25.575Q31.7 25.4 31.65 25.15H29.45Q29.45 25.4 29.525 25.575Q29.6 25.75 29.6 26Q29.6 28.25 27.925 29.975Q26.25 31.7 24 31.7H18.7Q19.45 32.65 20.9 33.275Q22.35 33.9 24 33.9ZM16.25 27.15H18.25Q18.25 26.9 18.325 26.575Q18.4 26.25 18.4 26Q18.4 23.75 20.05 22.15Q21.7 20.55 24 20.55H29.35Q28.4 19.6 27.025 18.975Q25.65 18.35 24 18.35Q20.65 18.35 18.45 20.525Q16.25 22.7 16.25 25.95Q16.25 26.25 16.25 26.575Q16.25 26.9 16.25 27.15ZM7.95 40.85Q6.8 40.85 5.975 40.025Q5.15 39.2 5.15 38.05V14.2Q5.15 13.05 5.975 12.225Q6.8 11.4 7.95 11.4H14.85L17.65 8.05Q18 7.6 18.575 7.375Q19.15 7.15 19.75 7.15H28.25Q28.85 7.15 29.425 7.375Q30 7.6 30.4 8.05L33.15 11.4H40.05Q41.15 11.4 42 12.225Q42.85 13.05 42.85 14.2V38.05Q42.85 39.2 42 40.025Q41.15 40.85 40.05 40.85Z"/></svg>
